X: 23303
T: Leeside Sessions, The
R: reel
M: 4/4
K: Gmajor
|:G,2 B,D G2 BG|AGEG Bd d2|G,A,B,D GABG|ABBA GEDB,|
G,2 B,D G2 BG|AGEG Bd d2|eddB ABGE|1 DEFA GEDB,:|2 DEFA BddB||
|:~e2 ed edBc|~d3 e dBGB|e2 ge edBA|GABG A2 Bd|
(3efe eg edBc|~d3 e dBGB|(3ABA AB AGED|1 G,A,B,D GABd:|2 G,A,B,D GEDB,||

